Adwaita++-Light/panel/24/xfce4-fsguard-plugin-urgent.svg

<svg height="24" width="24" xmlns="http://www.w3.org/2000/svg">
  <path d="m6 4c-.554 0-1 .446-1 1v14c0 .554.446 1 1 1h7.005859c-.000292-.023013-.006342-.04528-.005859-.068359.006994-.321067.085278-.637331.234375-.925782l1.792969-3.476562 1.792968-3.478516c.299841-.581085.885683-1.007688 1.570313-1.048828h.001953.001953c.066718-.0038.134442-.0036.201172 0 .14049.0074.273488.04215.404297.080078v-6.082031c0-.554-.446-1-1-1zm6 3c2.209139 0 4 1.790861 4 4s-1.790861 4-4 4h-4v-4c0-2.209139 1.790861-4 4-4zm0 2c-1.10457 0-2 .8954305-2 2 0 1.104569.895431 2 2 2s2-.895431 2-2c0-1.1045695-.895431-2-2-2z" fill="#444"/>
  <path d="m18.451172 12a.91368861 1.0229285 0 0 0 -.742188.509766l-1.792968 3.478515-1.792969 3.476563a.91368861 1.0229285 0 0 0 -.123047.488281.91368861 1.0229285 0 0 0 .914062 1.046875h3.585938 3.585938a.91368861 1.0229285 0 0 0 .791015-1.535156l-1.792969-3.476563-1.792968-3.478515a.91368861 1.0229285 0 0 0 -.748047-.509766.91368861 1.0229285 0 0 0 -.091797 0zm-.451172 2h1v4h-1zm0 5h1v1h-1z" fill="#4285f4"/>
</svg>

<svg xmlns="http://www.w3.org/2000/svg" width="24" height="24" version="1.1">
 <defs>
  <style id="current-color-scheme" type="text/css">
   .ColorScheme-Text { color:#444444; } .ColorScheme-Highlight { color:#4285f4; }
  </style>
 </defs>
 <g transform="translate(1,1)">
  <path style="fill:currentColor" class="ColorScheme-Text" d="M 6 4 C 5.446 4 5 4.446 5 5 L 5 19 C 5 19.554 5.446 20 6 20 L 13.005859 20 C 13.005567 19.976987 12.999517 19.95472 13 19.931641 C 13.006994 19.610574 13.085278 19.29431 13.234375 19.005859 L 15.027344 15.529297 L 16.820312 12.050781 C 17.120153 11.469696 17.705995 11.043093 18.390625 11.001953 L 18.392578 11.001953 L 18.394531 11.001953 C 18.461249 10.998153 18.528973 10.998353 18.595703 11.001953 C 18.736193 11.009353 18.869191 11.044103 19 11.082031 L 19 5 C 19 4.446 18.554 4 18 4 L 6 4 z M 12 7 C 14.209139 7 16 8.790861 16 11 C 16 13.209139 14.209139 15 12 15 L 8 15 L 8 11 C 8 8.790861 9.790861 7 12 7 z M 12 9 C 10.89543 9 10 9.8954305 10 11 C 10 12.104569 10.895431 13 12 13 C 13.104569 13 14 12.104569 14 11 C 14 9.8954305 13.104569 9 12 9 z" transform="translate(-1,-1)"/>
 </g>
 <path style="fill:currentColor" class="ColorScheme-Highlight" d="M 18.451172 12 A 0.91368861 1.0229285 0 0 0 17.708984 12.509766 L 15.916016 15.988281 L 14.123047 19.464844 A 0.91368861 1.0229285 0 0 0 14 19.953125 A 0.91368861 1.0229285 0 0 0 14.914062 21 L 18.5 21 L 22.085938 21 A 0.91368861 1.0229285 0 0 0 22.876953 19.464844 L 21.083984 15.988281 L 19.291016 12.509766 A 0.91368861 1.0229285 0 0 0 18.542969 12 A 0.91368861 1.0229285 0 0 0 18.451172 12 z M 18 14 L 19 14 L 19 18 L 18 18 L 18 14 z M 18 19 L 19 19 L 19 20 L 18 20 L 18 19 z"/>
</svg>
